lib/brands/icons/atom.svg

<svg xmlns="http://www.w3.org/2000/svg" fill="none" aria-hidden="true" viewBox="0 0 48 48"><g id="atom-Icon"><g id="Group"><path id="Vector" fill="#60B57D" d="M24 42C33.9411 42 42 33.9411 42 24C42 14.0589 33.9411 6 24 6C14.0589 6 6 14.0589 6 24C6 33.9411 14.0589 42 24 42Z"/><path id="Vector_2" fill="white" d="M22.5685 14.3169C22.7867 14.4923 22.8215 14.8113 22.6462 15.0296C22.4709 15.2478 22.1519 15.2826 21.9336 15.1073C20.6122 14.0458 19.5116 13.6954 18.8327 14.0419C18.0427 14.4448 17.7363 15.7411 17.8958 17.55L17.9198 17.7942C17.9332 17.9178 17.9487 18.0435 17.9662 18.1714L18.0039 18.4299C18.0509 18.7322 18.1088 19.0453 18.1777 19.3678C19.1292 19.2203 20.1533 19.124 21.2288 19.0838C21.6954 18.4844 22.1697 17.9218 22.6462 17.4008L22.8849 17.1434C23.4821 16.5088 24.081 15.9407 24.6704 15.449L24.9056 15.2565C27.0565 13.5289 29.0584 12.8453 30.353 13.6859C31.4808 14.4175 31.783 16.0749 31.3642 18.296C31.3123 18.5711 31.0473 18.752 30.7722 18.7001C30.4971 18.6483 30.3161 18.3832 30.368 18.1081C30.7188 16.248 30.4878 14.9817 29.8011 14.5362C28.9086 13.9568 27.2501 14.6239 25.38 16.1817L25.1714 16.3585C25.0667 16.4487 24.9614 16.5416 24.8556 16.6371L24.6433 16.8317C24.4305 17.0298 24.2159 17.2383 24.0004 17.4568L23.7845 17.6785C23.7485 17.7161 23.7125 17.7538 23.6764 17.7919L23.46 18.0234L23.2433 18.2612L23.0265 18.5053C22.9543 18.5877 22.8821 18.6711 22.8099 18.7556L22.5936 19.0118L22.5514 19.0629C23.0557 19.0656 23.5688 19.0802 24.0887 19.1072L24.2905 19.1183L24.6916 19.144C25.0244 19.1674 25.3535 19.1955 25.6784 19.2283L26.0662 19.2697C26.1304 19.277 26.1945 19.2845 26.2585 19.2921L26.6398 19.3401C26.9557 19.3818 27.2669 19.428 27.5727 19.4784L27.9373 19.5409L28.2965 19.6074L28.6503 19.6779C29.8203 19.9191 30.8959 20.2246 31.8439 20.5826L32.1244 20.6916C34.614 21.6864 36.1482 23.0558 36.0695 24.5694C36.0043 25.8207 34.8827 26.8536 33.0026 27.5938C32.7422 27.6964 32.4479 27.5684 32.3453 27.3079C32.2427 27.0474 32.3708 26.7531 32.6312 26.6506C34.1815 26.0402 35.0178 25.27 35.0571 24.5167C35.1073 23.5522 33.9534 22.5548 32.0326 21.7503L31.7936 21.6528C31.6318 21.5884 31.465 21.5254 31.2934 21.4638L31.0324 21.3726C30.9443 21.3426 30.855 21.313 30.7646 21.2837L30.4899 21.1972L30.2087 21.1132C30.1613 21.0994 30.1136 21.0857 30.0656 21.0721L29.7748 20.992C29.7259 20.9789 29.6766 20.9658 29.6271 20.9529L29.3272 20.8769C29.0242 20.8023 28.7125 20.7319 28.3927 20.6662L28.0703 20.6022C28.0161 20.5917 27.9618 20.5815 27.9072 20.5713L27.5771 20.5121L27.2421 20.4562C27.1858 20.4472 27.1294 20.4383 27.0728 20.4296L26.7308 20.3789C26.616 20.3626 26.5005 20.3469 26.3843 20.3318L26.0336 20.2884L25.6787 20.2488C25.5003 20.2299 25.3204 20.2125 25.1392 20.1966L24.7749 20.1668C24.6528 20.1576 24.5302 20.149 24.4071 20.1411L24.036 20.1196L23.6647 20.1025L23.2962 20.0899C22.8681 20.0778 22.4461 20.0748 22.0317 20.0802L21.742 20.0857L21.6281 20.2367C21.5573 20.3317 21.4867 20.4275 21.4164 20.5242L21.206 20.8171C20.9615 21.1617 20.7201 21.5171 20.4832 21.8823C20.4155 21.9866 20.3486 22.091 20.2827 22.1953L20.0875 22.5081C19.8798 22.8456 19.6813 23.1824 19.4924 23.5173C19.5098 23.5597 19.5274 23.6023 19.5451 23.6449L19.6829 23.9704C19.7063 24.0248 19.73 24.0792 19.7538 24.1337L19.8996 24.4616L20.0506 24.7908L20.207 25.1212L20.3686 25.4526L20.5355 25.7847L20.7063 26.1148L20.8797 26.4402L21.0553 26.7608C21.0847 26.8138 21.1143 26.8667 21.1439 26.9193L21.3228 27.2324C21.3827 27.3359 21.443 27.4385 21.5035 27.5403L21.686 27.8429C21.7472 27.9429 21.8086 28.042 21.8702 28.1402L22.0558 28.4319L22.2427 28.718C22.399 28.954 22.5564 29.1839 22.7146 29.4075L22.9049 29.6728C23.0319 29.8476 23.1594 30.0183 23.287 30.1846L23.4785 30.4308L23.6702 30.6705C23.7022 30.7099 23.7341 30.749 23.7661 30.7878L23.9577 31.0173L24.149 31.2399C24.3401 31.4591 24.5306 31.6676 24.7198 31.8651L24.9085 32.0588L25.0961 32.245C25.1896 32.3362 25.2827 32.4245 25.3753 32.5098L25.5596 32.6766C25.6514 32.7581 25.7426 32.8365 25.8331 32.9118L26.0131 33.0585C27.2368 34.0322 28.3212 34.4255 29.0411 34.0583C29.7172 33.7136 30.0398 32.7072 30.016 31.2799L30.0098 31.0627C30.0069 30.9893 30.0031 30.9148 29.9985 30.8394L29.9819 30.6101C29.9756 30.5327 29.9683 30.4543 29.9602 30.375L29.9333 30.1343C29.9284 30.0938 29.9233 30.053 29.9179 30.012L29.8833 29.7633L29.8435 29.5094L29.7985 29.2506C29.7589 29.0329 29.7139 28.8102 29.6636 28.5831L29.6006 28.3083L29.5325 28.0294C29.5207 27.9826 29.5087 27.9356 29.4965 27.8885L29.4207 27.6037L29.3398 27.3153C29.3259 27.2669 29.3118 27.2184 29.2974 27.1697L29.2089 26.8761L29.1152 26.5792C29.0671 26.4299 29.017 26.2795 28.9651 26.1281L28.8587 25.8239L28.7471 25.5171C28.6711 25.3117 28.5917 25.1047 28.5089 24.8963L28.3821 24.5827L28.2503 24.2672C28.2279 24.2145 28.2053 24.1617 28.1825 24.1088L28.0431 23.7909L27.8987 23.4715C27.8742 23.4181 27.8495 23.3647 27.8245 23.3113L27.6725 22.9901C27.6468 22.9365 27.6208 22.8828 27.5946 22.8291C27.472 22.5774 27.5765 22.274 27.8282 22.1514C28.0798 22.0287 28.3832 22.1333 28.5059 22.3849L28.674 22.735C28.7291 22.8515 28.7833 22.9678 28.8366 23.084L28.9937 23.4319C29.148 23.779 29.294 24.1242 29.4314 24.4663L29.566 24.8075C29.588 24.8642 29.6097 24.9208 29.6312 24.9773L29.7572 25.3152C29.7778 25.3713 29.7981 25.4274 29.8181 25.4833L29.9355 25.8175C30.0118 26.0394 30.0843 26.2595 30.1528 26.4776L30.2527 26.8031C31.448 30.798 31.2946 34.0472 29.5017 34.9614C28.0514 35.7011 25.9951 34.6737 23.9253 32.5068L23.7111 32.2786C23.5684 32.1238 23.4256 31.9637 23.2831 31.7984L23.0696 31.5468C22.5007 30.8656 21.9369 30.1043 21.3908 29.276L21.1869 28.9623C20.6793 28.1703 20.1885 27.321 19.7248 26.4251L19.6324 26.2453C19.5711 26.125 19.5107 26.0048 19.4513 25.8847L19.2758 25.5249C19.1378 25.2373 19.0053 24.9506 18.8785 24.6653L18.7967 24.8273C18.7714 24.8779 18.7464 24.9285 18.7216 24.979L18.5757 25.281L18.4355 25.5807L18.3009 25.8781C18.2789 25.9275 18.2572 25.9767 18.2357 26.0259L18.1096 26.3193C18.0891 26.3679 18.0688 26.4165 18.0487 26.4649L17.9313 26.7539C17.9122 26.8018 17.8933 26.8496 17.8747 26.8973L17.7659 27.1814C17.7483 27.2285 17.7309 27.2754 17.7137 27.3222L17.6137 27.6011L17.5195 27.8761C17.4739 28.0127 17.4305 28.1478 17.3893 28.2812L17.3099 28.546L17.2365 28.8063C17.2247 28.8493 17.2133 28.8921 17.202 28.9347L17.1376 29.1878C17.0865 29.3968 17.0416 29.6006 17.0031 29.7986L16.96 30.0335C16.6731 31.697 16.8601 32.9238 17.571 33.3852C18.287 33.8497 19.6147 33.4963 21.2529 32.3136C21.4799 32.1497 21.7967 32.2009 21.9606 32.4279C22.1245 32.6549 22.0733 32.9717 21.8463 33.1356C19.9047 34.5373 18.1883 34.9941 17.0192 34.2356C15.6065 33.3189 15.5072 30.8948 16.4474 27.8792L16.5449 27.5757C16.6122 27.3721 16.6841 27.166 16.7604 26.9577L16.8783 26.6436C17.04 26.2226 17.2195 25.7933 17.4162 25.3578L17.5669 25.0301L17.724 24.7003C17.9242 24.2871 18.1391 23.8695 18.3683 23.4492C18.338 23.3715 18.3078 23.2941 18.2781 23.2168L18.147 22.8687C17.9762 22.4061 17.8215 21.9501 17.6835 21.5028L17.5831 21.169C17.5211 20.9575 17.4629 20.748 17.4086 20.541C17.3461 20.5534 17.2842 20.5662 17.2228 20.5792L16.9472 20.6399L16.6782 20.7035C16.6339 20.7144 16.5899 20.7253 16.5463 20.7364L16.2876 20.8044L16.0362 20.8752C15.9536 20.8993 15.8722 20.9238 15.792 20.9488L15.5554 21.0251C15.4778 21.0509 15.4015 21.0772 15.3265 21.1039L15.1054 21.1853C13.5863 21.7637 12.6609 22.5226 12.6179 23.3493C12.5786 24.1027 13.3305 24.9556 14.8093 25.7234C15.0577 25.8524 15.1546 26.1584 15.0256 26.4069C14.8966 26.6553 14.5906 26.7521 14.3421 26.6231C12.5487 25.6919 11.5402 24.548 11.6055 23.2966C11.6963 21.552 13.8984 20.2204 17.1739 19.548C16.5109 16.3805 16.8483 13.916 18.372 13.1389C19.4982 12.564 20.9695 13.0325 22.5685 14.3169ZM25.3463 23.7458C25.5145 24.5243 25.0198 25.2912 24.2414 25.4597C23.463 25.6279 22.696 25.1332 22.5275 24.3548C22.3597 23.5763 22.854 22.8094 23.6325 22.6409C24.4109 22.4727 25.1778 22.9674 25.3463 23.7458ZM20.4388 20.1449L20.3473 20.1513C20.2775 20.1564 20.208 20.1617 20.1388 20.1672L19.809 20.1956L19.4842 20.2277C19.4305 20.2334 19.377 20.2392 19.3237 20.2452L19.0065 20.2827C18.9541 20.2893 18.9019 20.296 18.8499 20.3028L18.5409 20.3456L18.4183 20.3643L18.4616 20.5261C18.5294 20.7727 18.6029 21.0233 18.682 21.2774L18.7797 21.5839C18.7964 21.6353 18.8133 21.6868 18.8305 21.7384L18.9362 22.0497C18.9653 22.1337 18.995 22.218 19.0253 22.3025C19.1859 22.0356 19.3519 21.7679 19.5232 21.5004L19.6327 21.3305C19.8966 20.9238 20.1657 20.5283 20.4388 20.1449Z"/></g></g></svg>

<svg xmlns="http://www.w3.org/2000/svg" fill="none" aria-hidden="true" viewBox="0 0 48 48"><path fill="#60B57D" d="M24 42c9.941 0 18-8.059 18-18S33.941 6 24 6 6 14.059 6 24s8.059 18 18 18Z"/><path fill="#fff" d="M22.569 14.317a.507.507 0 0 1-.635.79c-1.322-1.061-2.422-1.412-3.101-1.065-.79.403-1.097 1.7-.937 3.508l.024.244c.013.124.029.25.046.377l.038.259c.047.302.105.615.174.938a26.453 26.453 0 0 1 3.05-.284c.467-.6.942-1.162 1.418-1.683l.239-.258a20.547 20.547 0 0 1 1.785-1.694l.236-.192c2.15-1.728 4.152-2.412 5.447-1.571 1.128.732 1.43 2.389 1.011 4.61a.507.507 0 1 1-.996-.188c.35-1.86.12-3.126-.567-3.572-.892-.58-2.55.088-4.421 1.646l-.209.177c-.104.09-.21.183-.315.278l-.213.195a21.03 21.03 0 0 0-.643.625l-.215.221-.109.114-.216.231-.217.238-.216.244-.217.25-.216.257-.043.05c.505.004 1.018.018 1.538.045l.202.011.4.026c.333.023.663.052.987.084l.388.042.193.022.38.048c.317.042.628.088.934.138l.364.063.36.066.353.07a21.24 21.24 0 0 1 3.194.906l.28.109c2.49.994 4.024 2.364 3.945 3.877-.065 1.252-1.186 2.285-3.066 3.025a.507.507 0 1 1-.372-.943c1.55-.61 2.387-1.381 2.426-2.134.05-.965-1.104-1.962-3.024-2.767l-.24-.097a15.666 15.666 0 0 0-.5-.19l-.26-.09-.268-.09-.275-.086-.281-.084a20.648 20.648 0 0 0-.143-.04l-.291-.081a22.432 22.432 0 0 0-.148-.04l-.3-.075a24.714 24.714 0 0 0-.934-.21l-.323-.065-.163-.03-.33-.06-.335-.056a28.548 28.548 0 0 0-.17-.026l-.341-.051-.347-.047-.35-.044-.355-.04a30.08 30.08 0 0 0-.54-.051l-.364-.03c-.122-.01-.245-.018-.368-.026l-.371-.021-.371-.018-.369-.012c-.428-.012-.85-.015-1.264-.01l-.29.006-.114.15-.212.288-.21.293a30.937 30.937 0 0 0-.923 1.378l-.196.313c-.207.338-.406.674-.595 1.01l.053.127.138.325.07.164.147.328.15.329.157.33.162.332.166.332.171.33.174.325.175.32.089.16.179.312.18.308.183.303.184.297.186.292.187.286c.156.236.313.466.472.69l.19.265c.127.175.254.345.382.512l.192.246.191.24.096.117.192.23.191.222c.191.22.382.428.57.625l.19.194.187.186c.094.091.187.18.28.265l.184.167c.091.081.183.16.273.235l.18.147c1.224.973 2.308 1.367 3.028 1 .676-.345.999-1.352.975-2.78l-.006-.216a10.436 10.436 0 0 0-.012-.224l-.016-.229a11.485 11.485 0 0 0-.022-.235l-.027-.24a11.68 11.68 0 0 0-.015-.123l-.035-.249-.04-.254-.044-.258a17.92 17.92 0 0 0-.135-.668l-.063-.275-.069-.279a22.502 22.502 0 0 0-.035-.14l-.076-.285-.081-.289a19.349 19.349 0 0 0-.043-.145l-.088-.294-.094-.297c-.048-.15-.098-.3-.15-.45l-.106-.305-.112-.307a27.944 27.944 0 0 0-.238-.62l-.127-.314-.132-.316a34.238 34.238 0 0 0-.067-.158l-.14-.318-.144-.32a22.9 22.9 0 0 0-.075-.16l-.152-.32a26.23 26.23 0 0 0-.077-.162.507.507 0 0 1 .91-.444l.169.35c.055.117.11.233.163.349l.157.348c.154.347.3.692.437 1.034l.135.341.065.17.126.338.061.168.117.334c.077.222.15.442.218.66l.1.326c1.195 3.995 1.042 7.244-.751 8.158-1.45.74-3.507-.287-5.577-2.454l-.214-.228a19.329 19.329 0 0 1-.428-.48l-.213-.252a25.13 25.13 0 0 1-1.68-2.271l-.203-.314a31.798 31.798 0 0 1-1.462-2.537l-.093-.18-.18-.36-.176-.36c-.138-.288-.27-.574-.398-.86l-.081.162c-.026.05-.05.101-.075.152l-.146.302-.14.3-.135.297-.065.148-.126.293-.061.146-.118.289-.056.143-.11.284a27.76 27.76 0 0 0-.051.141l-.1.28-.095.274-.13.405-.08.265-.073.26-.034.129-.064.253a12.88 12.88 0 0 0-.135.61l-.043.236c-.287 1.663-.1 2.89.611 3.351.716.465 2.044.111 3.682-1.071a.507.507 0 1 1 .593.822c-1.941 1.401-3.658 1.858-4.827 1.1-1.412-.917-1.512-3.341-.572-6.357l.098-.303c.067-.204.14-.41.215-.618l.118-.314c.162-.421.341-.85.538-1.286l.15-.328.158-.33c.2-.413.415-.83.644-1.25l-.09-.233-.131-.348a27.55 27.55 0 0 1-.463-1.366l-.1-.334a19.334 19.334 0 0 1-.175-.628l-.186.038-.276.06-.269.064-.132.033-.258.068-.252.071a13.95 13.95 0 0 0-.244.074l-.237.076a11.51 11.51 0 0 0-.229.079l-.22.081c-1.52.579-2.445 1.338-2.488 2.164-.04.754.713 1.607 2.191 2.374a.507.507 0 0 1-.467.9c-1.793-.931-2.802-2.075-2.737-3.326.091-1.745 2.293-3.077 5.569-3.749-.663-3.167-.326-5.632 1.198-6.41 1.126-.574 2.598-.105 4.197 1.179Zm2.777 9.429a1.442 1.442 0 1 1-2.819.609 1.442 1.442 0 0 1 2.82-.61Zm-4.907-3.601-.092.006-.208.016-.33.029-.325.032-.16.017-.318.038a33.33 33.33 0 0 0-.156.02l-.31.043-.122.018.044.162c.067.247.14.497.22.751l.098.307.05.154.106.312.09.252c.16-.266.326-.534.497-.802l.11-.17a33.6 33.6 0 0 1 .806-1.185Z"/></svg>
